X: 34260
T: Reichswall Forest
R: reel
M: 4/4
K: Fmajor
|:cFdF cFAd|cFAc ~f3d|cFdF cFAc|BG_EG B2AB|
cFdF cFAd|cFAc ~f3g|affe fcAc|BG_EG B2AB:|
|:cfef cfaf|cFAc ~f3d|cfef afcA|BG_EG B2AB|
cfef cfaf|cFAc ~f3g|affe fcAc|BG_EG B2AB:|

